icons/npmjs.svg

<svg width="24" height="24" viewBox="0 0 24 24" fill="none" xmlns="http://www.w3.org/2000/svg">
<path d="M8 7C7.44772 7 7 7.44772 7 8V16C7 16.5523 7.44772 17 8 17H11C11.5523 17 12 16.5523 12 16V10H14V16C14 16.5523 14.4477 17 15 17H16C16.5523 17 17 16.5523 17 16V8C17 7.44772 16.5523 7 16 7H8Z" fill="black"/>
<path fill-rule="evenodd" clip-rule="evenodd" d="M3 4C3 3.44772 3.44772 3 4 3H20C20.5523 3 21 3.44772 21 4V20C21 20.5523 20.5523 21 20 21H4C3.44772 21 3 20.5523 3 20V4ZM5 5V19H19V5H5Z" fill="black"/>
</svg>

<svg
  width="24"
  height="24"
  viewBox="0 0 24 24"
  xmlns="http://www.w3.org/2000/svg"
>
  <path d="M8 7a1 1 0 0 0-1 1v8a1 1 0 0 0 1 1h3a1 1 0 0 0 1-1v-6h2v6a1 1 0 0 0 1 1h1a1 1 0 0 0 1-1V8a1 1 0 0 0-1-1H8z" />
  <path
    fill-rule="evenodd"
    clip-rule="evenodd"
    d="M3 4a1 1 0 0 1 1-1h16a1 1 0 0 1 1 1v16a1 1 0 0 1-1 1H4a1 1 0 0 1-1-1V4zm2 1v14h14V5H5z"
  />
</svg>
